src/qt/seed2need/res/img/ic-nav-governance-hover.svg

<?xml version="1.0" encoding="UTF-8" standalone="no"?>
<svg
   xmlns:dc="http://purl.org/dc/elements/1.1/"
   xmlns:cc="http://creativecommons.org/ns#"
   xmlns:rdf="http://www.w3.org/1999/02/22-rdf-syntax-ns#"
   xmlns:svg="http://www.w3.org/2000/svg"
   xmlns="http://www.w3.org/2000/svg"
   xmlns:sodipodi="http://sodipodi.sourceforge.net/DTD/sodipodi-0.dtd"
   xmlns:inkscape="http://www.inkscape.org/namespaces/inkscape"
   width="30"
   height="30"
   viewBox="0 0 30 30"
   fill="none"
   version="1.1"
   id="svg11"
   sodipodi:docname="ic-nav-governance-hover.svg"
   inkscape:version="0.92.3 (2405546, 2018-03-11)">
  <metadata
     id="metadata15">
    <rdf:RDF>
      <cc:Work
         rdf:about="">
        <dc:format>image/svg+xml</dc:format>
        <dc:type
           rdf:resource="http://purl.org/dc/dcmitype/StillImage" />
      </cc:Work>
    </rdf:RDF>
  </metadata>
  <sodipodi:namedview
     pagecolor="#ffffff"
     bordercolor="#666666"
     borderopacity="1"
     objecttolerance="10"
     gridtolerance="10"
     guidetolerance="10"
     inkscape:pageopacity="0"
     inkscape:pageshadow="2"
     inkscape:window-width="2046"
     inkscape:window-height="1273"
     id="namedview13"
     showgrid="false"
     inkscape:zoom="7.8666667"
     inkscape:cx="-5.5932203"
     inkscape:cy="15"
     inkscape:window-x="67"
     inkscape:window-y="27"
     inkscape:window-maximized="1"
     inkscape:current-layer="g4" />
  <g
     clip-path="url(#clip0)"
     id="g4"
     style="display:inline">
    <path
       d="m 19.3474,21.1944 c 0.0219,-0.0227 0.0412,-0.0468 0.0576,-0.0733 l 2.7053,-4.1567 0.91,0.9075 L 26,14.9007 18.0773,7 l -2.9797,2.9712 1.2,1.1966 -3.7728,0.9559 c -1.6094,0.4092 -2.95513,1.4869 -3.69402,2.9588 -0.39009,0.7887 -0.5974,1.6615 -0.5974,2.5261 0,0.4778 0.06108,0.9521 0.18064,1.4127 H 5.8352 c -0.25333,0 -0.45891,9e-4 -0.45891,9e-4 v 10.063 H 4 V 30 h 1.8352 11.9436 1.8193 V 29.0852 H 18.2373 V 22.3189 Z M 18.1461,8.1031 24.8443,14.7823 22.9666,16.6548 16.2683,9.9755 Z M 17.3199,29.0856 H 6.29367 v -9.1495 h 8.50073 l -2.3496,2.3468 c -0.7066,0.708 -0.8623,1.7695 -0.3789,2.5801 0.3789,0.6338 1.0451,1.013 1.7827,1.013 0.5605,0 1.0865,-0.217 1.4809,-0.612 l 1.99,-2.0157 v 5.8373 z M 12.7674,19.0213 c 0.3376,-0.389 0.8198,-0.6279 1.3466,-0.6549 0.6086,-0.0304 1.1634,0.2114 1.5479,0.6549 z m 1.9118,5.5976 c -0.514,0.5117 -1.4516,0.4062 -1.8266,-0.2243 -0.2654,-0.4438 -0.1635,-1.0606 0.2404,-1.4658 l 3.11,-3.1059 c 0.0159,-0.0138 0.0309,-0.0288 0.0447,-0.0446 l 0.3725,-0.3719 c 0.1522,-0.1591 0.169,-0.4044 0.0404,-0.5828 L 16.5174,18.625 c -0.5669,-0.7848 -1.4873,-1.2253 -2.4516,-1.1729 -0.9681,0.051 -1.833,0.5828 -2.3138,1.4217 -0.0267,0.0471 -0.0439,0.0969 -0.0525,0.1471 H 9.36409 C 9.36108,19.0033 9.35721,18.9861 9.35162,18.9685 9.21872,18.5268 9.15163,18.0692 9.15163,17.6082 c 0,-0.7248 0.17418,-1.4573 0.50191,-2.1191 0.61846,-1.2326 1.74706,-2.1362 3.09756,-2.4802 l 4.3009,-1.0897 4.3972,4.3848 -2.7853,4.2797 z"
       id="path2"
       inkscape:connector-curvature="0"
       style="fill:#ffffff;stroke:none;stroke-width:0.60000002;fill-opacity:1;stroke-opacity:1" />
  </g>
  <defs
     id="defs9">
    <clipPath
       id="clip0">
      <rect
         width="30"
         height="30"
         fill="white"
         id="rect6" />
    </clipPath>
  </defs>
</svg>

<svg width="30" height="30" viewBox="0 0 30 30" fill="none" xmlns="http://www.w3.org/2000/svg">
<g clip-path="url(#clip0)">
<path d="M19.3474 21.1944C19.3693 21.1717 19.3886 21.1476 19.405 21.1211L22.1103 16.9644L23.0203 17.8719L26 14.9007L18.0773 7L15.0976 9.9712L16.2976 11.1678L12.5248 12.1237C10.9154 12.5329 9.56967 13.6106 8.83078 15.0825C8.44069 15.8712 8.23338 16.744 8.23338 17.6086C8.23338 18.0864 8.29446 18.5607 8.41402 19.0213H5.8352C5.58187 19.0213 5.37629 19.0222 5.37629 19.0222V29.0852H4V30H5.8352H17.7788H19.5981V29.0852H18.2373V22.3189L19.3474 21.1944ZM18.1461 8.1031L24.8443 14.7823L22.9666 16.6548L16.2683 9.9755L18.1461 8.1031ZM17.3199 29.0856H6.29367V19.9361H14.7944L12.4448 22.2829C11.7382 22.9909 11.5825 24.0524 12.0659 24.863C12.4448 25.4968 13.111 25.876 13.8486 25.876C14.4091 25.876 14.9351 25.659 15.3295 25.264L17.3195 23.2483V29.0856H17.3199ZM12.7674 19.0213C13.105 18.6323 13.5872 18.3934 14.114 18.3664C14.7226 18.336 15.2774 18.5778 15.6619 19.0213H12.7674ZM14.6792 24.6189C14.1652 25.1306 13.2276 25.0251 12.8526 24.3946C12.5872 23.9508 12.6891 23.334 13.093 22.9288L16.203 19.8229C16.2189 19.8091 16.2339 19.7941 16.2477 19.7783L16.6202 19.4064C16.7724 19.2473 16.7892 19.002 16.6606 18.8236L16.5174 18.625C15.9505 17.8402 15.0301 17.3997 14.0658 17.4521C13.0977 17.5031 12.2328 18.0349 11.752 18.8738C11.7253 18.9209 11.7081 18.9707 11.6995 19.0209H9.36409C9.36108 19.0033 9.35721 18.9861 9.35162 18.9685C9.21872 18.5268 9.15163 18.0692 9.15163 17.6082C9.15163 16.8834 9.32581 16.1509 9.65354 15.4891C10.272 14.2565 11.4006 13.3529 12.7511 13.0089L17.052 11.9192L21.4492 16.304L18.6639 20.5837L14.6792 24.6189Z" fill="white" stroke="white" stroke-width="0.6"/>
</g>
<defs>
<clipPath id="clip0">
<rect width="30" height="30" fill="white"/>
</clipPath>
</defs>
</svg>
